X:2265 
T:Hush thee my babe
T:Cradle song
C:Morrison, Peel
C:Traditional
O:Isle of Man 
Z:Clague Collection
B:Kiaull Vannin #265 
N:See also KV381
L:1/8
M:3/8 
Q:80 
K:D 
E/F/|FFF|GGA/G/|FFD|ED D/E/|FF E/D/|EF G/F/|EDD|D2 A/B/|| 
|=cc B/A/|Bd =c/B/|AGD|ED A/B/|=cc B/A/|Bd B/A/|Ad^c|d2 d/e/|
=fed|=cA G/F/|GAD|ED D/E/|FFE/D/|E!fermata!A G/F/|EDD|D2|| 

